X:0987
T:A Do.
M:6/8
L:1/8
Q:3/8=112
I: :: ||
N:initial repeat barlines added
Z:Jack Campin * www.campin.me.uk * 2009
K:A Mixolydian
e|:AAA AAA|AAA c2e|AAA cAc|d2e BGe|AcA AcA|AcA c2A|d2B c2A|d2c BGe:|
 |:AAA e3 |AAA cAc|AAA e2c|d2c BGB|AAA e3 |AAA c2A|d2B c2A|d2c BGB:|

